X:8198
T:Yorkshire Lasses
O:england
M:6/8
A:North-West
R:Jig
K:D
A|\
d2A FGA| Bed cBA| def efg| fdf edc| \
e2A FGA| Bed cBA| dcd efg| fdd d2::\
e|\
fdf faf| ece eac| dcd Bed| cAA A2A|\
BGB BdB| AFA ABc| dcd efg| fdd d2:|


